tenants/vtwonen/icons/direction_up.svg

<svg fill="none" height="24" viewBox="0 0 24 24" width="24" xmlns="http://www.w3.org/2000/svg"><path d="m2.1576 16.5628.31697.292c.21009.1936.55073.1936.76086 0l8.76457-8.07417 8.7646 8.07417c.2101.1936.5507.1936.7609 0l.3169-.292c.2101-.1936.2101-.5074 0-.7009l-9.462-8.71678c-.2101-.19354-.5507-.19354-.7608 0l-9.462 8.71678c-.21013.1935-.21013.5073 0 .7009z" fill="#000"/></svg>

<svg width="24" height="24" viewBox="0 0 24 24" fill="none" xmlns="http://www.w3.org/2000/svg">
<path d="M2.1576 16.5628L2.47457 16.8548C2.68466 17.0484 3.0253 17.0484 3.23543 16.8548L12 8.78063L20.7646 16.8548C20.9747 17.0484 21.3153 17.0484 21.5255 16.8548L21.8424 16.5628C22.0525 16.3692 22.0525 16.0554 21.8424 15.8619L12.3804 7.14512C12.1703 6.95158 11.8297 6.95158 11.6196 7.14512L2.1576 15.8619C1.94747 16.0554 1.94747 16.3692 2.1576 16.5628Z" fill="black"/>
</svg>
